X: 27
T:Missa Gaudeamus / Sanctus
N: Derived from Jos0402d-Missa_Gaudeamus-Sanctus.krn
C: Josquin des Prez
%%abc-version 2.0
%%abcx-abcm2ps-target-version 5.9.1 (29 Sep 2008)
%%abc-creator hum2abc beta
%%abcx-conversion-date 2019/02/12 16:15:39
%%abc-edited-by Jesse Rodin
%%abc-edited-by Jesse Rodin
%%abcx-initial-encoding-date 2011/01/01/
%%humdrum-veritas 2600480915
%%humdrum-veritas-data 823760187
%%linebreak <none>
%%barnumbers 0
L: 1/4
M: 3/1
Q: 1/2=120
%%staves [1 2 3 4]
V: 1 clef=treble
V: 2 clef=treble-8
V: 3 clef=treble-8
V: 4 clef=bass
K: C
[V:1] z12 | 
[V:2] z12 | 
[V:3] z12 | 
[V:4] G,8A,4 | 
[V:1] z12 | 
[V:2] G8A3B | 
[V:3] z12 | 
[V:4] B,6G,2C4 | 
[V:1] z12 | 
[V:2] cde4c2f4 | 
[V:3] z12 | 
[V:4] C,8D,4 | 
[V:1] z12 | 
[V:2] e2g3fe4d2 | 
[V:3] G8A3B | 
[V:4] E,6C,2F,4 | 
[V:1] G8A4 | 
[V:2] e8A3B | 
[V:3] cde4c2f4 | 
[V:4] E,8D,3C, | 
[V:1] A8e4- | 
[V:2] c4A2c3def | 
[V:3] e8A4 | 
[V:4] A,,4A,8 | 
[V:1] e4f8 | 
[V:2] g4a4f2a2- | 
[V:3] B3cd4A4 | 
[V:4] G,3F,D,8 | 
[V:1] e12 | 
[V:2] age2z2c3BAG | 
[V:3] z2c3BAGAGc2- | 
[V:4] A,4z4z2A,,2 | 
[V:1] z12 | 
[V:2] AGc4e3dcB | 
[V:3] c2e3dcBcBe2- | 
[V:4] C,3D,E,2A,,2E,4 | 
[V:1] z12 | 
[V:2] cBe4g3fed | 
[V:3] e2g3fededg2- | 
[V:4] E,3F,G,2C,2G,4 | 
[V:1] z12 | 
[V:2] edg4G3AB2 | 
[V:3] g2G3AB2G2g2- | 
[V:4] G,3A,B,2E,2B,2E,2- | 
[V:1] z12 | 
[V:2] G2g3fe2d4 | 
[V:3] gfe2dcc4B2 | 
[V:4] E,D,E,F,G,2C,2G,4 | 
[V:1] G8A4 | 
[V:2] z2e4e2f3e | 
[V:3] c12 | 
[V:4] C,4z2C,2F,3G, | 
[V:1] A8e4- | 
[V:2] c2f2e2a3gg2- | 
[V:3] z2F2A3Bc4- | 
[V:4] A,3B,C4C,4 | 
[V:1] e4f8 | 
[V:2] g2g2a8- | 
[V:3] c8z2F2 | 
[V:4] z2C,2F,3G,A,3B, | 
[V:1] e12 | 
[V:2] a4g8 | 
[V:3] A3Bc8 | 
[V:4] C4C,4z2C,2 | 
[V:1] z12 | 
[V:2] a2A2B2c2A4 | 
[V:3] z2c2d2e3fd2 | 
[V:4] F,3E,D,2C,2D,2F,2 | 
[V:1] z12 | 
[V:2] G4z2e2f2g2 | 
[V:3] e2d2e2A4B2 | 
[V:4] E,2B,2C3B,A,2G,2 | 
[V:1] z12 | 
[V:2] e3cd2e2d2e2 | 
[V:3] c2A2G8 | 
[V:4] A,2C2B,2E,2z2E,2 | 
[V:1] z12 | 
[V:2] A12 | 
[V:3] z2c2d2e3fd2 | 
[V:4] F,3E,D,2C,2D,2F,2 | 
[V:1] G8A4 | 
[V:2] z2e2d2e2c2f2- | 
[V:3] e2c2B4A3G | 
[V:4] E,4z2E,2F,3E, | 
[V:1] A8e4- | 
[V:2] f2e2d2c3B/A/B2 | 
[V:3] ABc3BA4^G2 | 
[V:4] D,2C,2D,2F,2E,4 | 
[V:1] e4f8 | 
[V:2] cBAGF2D2d3c | 
[V:3] A12- | 
[V:4] C,4D,6A,,2 | 
[V:1] e12 ||  
[V:2] c12 ||  
[V:3] A12 ||  
[V:4] A,,12 ||  
[V:1]  [K:C] [K:clef=treble][M:3/1]z12 | 
[V:2]  [K:C] [K:clef=treble-8][M:3/1]z12 | 
[V:3]  [K:C] [K:clef=treble-8][M:3/1]z12 | 
[V:4]  [K:C] [K:clef=bass][M:3/1]A,6B,2C4 | 
[V:1] z12 | 
[V:2] A6B2c4 | 
[V:3] z12 | 
[V:4] F,6E,D,E,4 | 
[V:1] z12 | 
[V:2] F3GABc3de2 | 
[V:3] z12 | 
[V:4] D,2F,4E,D,E,4 | 
[V:1] A6B2c4 | 
[V:2] f6ede4 | 
[V:3] z12 | 
[V:4] D,6B,,2A,,4 | 
[V:1] F3GABc3de2 | 
[V:2] d2f4ede4 | 
[V:3] z12 | 
[V:4] z12 | 
[V:1] f3ed2c2B2A2 | 
[V:2] d3efga2g2a2 | 
[V:3] z12 | 
[V:4] z12 | 
[V:1] c3BA2G2F4 | 
[V:2] A3Bcde4d2 | 
[V:3] z12 | 
[V:4] z4z4D,4 | 
[V:1] E8z4 | 
[V:2] e4z4A4 | 
[V:3] z12 | 
[V:4] A,4G,2E,2F,4 | 
[V:1] z12 | 
[V:2] e4d2B2c4 | 
[V:3] z12 | 
[V:4] E,4z2D,2A,4 | 
[V:1] z12 | 
[V:2] B4z2A2e4 | 
[V:3] z12 | 
[V:4] G,2E,2F,3E,C,2G,2- | 
[V:1] z4z4D4 | 
[V:2] d2B2c3BG4 | 
[V:3] z12 | 
[V:4] G,F,G,2A,2C3B,/A,/B,2 | 
[V:1] A4G2E2F4 | 
[V:2] F2c3Bc2d2A2- | 
[V:3] z12 | 
[V:4] C2F,2G,2A,2D,4 | 
[V:1] E4z2D2A4 | 
[V:2] A2c2d2f3ec2- | 
[V:3] z12 | 
[V:4] z12 | 
[V:1] G2E2F3EC2G2- | 
[V:2] cBc2d2f2e4- | 
[V:3] z12 | 
[V:4] z12 | 
[V:1] GFG2A2c3B/A/B2 | 
[V:2] e4c4d4 | 
[V:3] z12 | 
[V:4] z2C,2F,3E,F,2G,2 | 
[V:1] c2F2G2A2D4 | 
[V:2] c2d4c2d2_B2 | 
[V:3] z12 | 
[V:4] A,2_B,4A,2B,2D2- | 
[V:1] E3DEG2F/E/FGE2 | 
[V:2] A4z4z4 | 
[V:3] z12 | 
[V:4] DC/B,/CDG,2A,3G,/F,/G,A, | 
[V:1] A2zG2F/E/FGC2D2 | 
[V:2] z2G2A3GA2B2 | 
[V:3] z12 | 
[V:4] D,2E,3D,/C,/D,E,A,,A,2G, | 
[V:1] C2G3AB2c2A2 | 
[V:2] c2d2e3de2f2 | 
[V:3] z12 | 
[V:4] A,C2B,CA,G,2C3D | 
[V:1] G2c2zd2cd2B2 | 
[V:2] g2a3g/f/gad2g2- | 
[V:3] z12 | 
[V:4] E2A,2_B,3A,B,2G,2 | 
[V:1] zc2BcAG2zA2G | 
[V:2] gf/e/fgc2ze2d/c/de | 
[V:3] z12 | 
[V:4] A,3G,A,2E,2F,3E, | 
[V:1] A2F2zG2FGED2 | 
[V:2] A2zd2c/B/cdG2A2 | 
[V:3] z12 | 
[V:4] F,2D,2E,3D,E,G,2F, | 
[V:1] zGABcAB2z2zG | 
[V:2] G2d2cd2BcdG2 | 
[V:3] z12 | 
[V:4] G,E,D,2z2zG,F,D,E,2 | 
[V:1] ABcABcAB2G2^F | 
[V:2] d2cd2c/B/cdG2A2 | 
[V:3] z12 | 
[V:4] D,2zF,G,A,F,D,E,2D,2 | 
[V:1] G12 ||  
[V:2] G12 ||  
[V:3] z12 ||  
[V:4] G,12 ||  
[V:1]  [K:C] [K:clef=treble][M:3/1]z12 | 
[V:2]  [K:C] [K:clef=treble-8][M:3/1]z12 | 
[V:3]  [K:C] [K:clef=treble-8][M:3/1]G8A4 | 
[V:4]  [K:C] [K:clef=bass][M:3/1]z12 | 
[V:1] z12 | 
[V:2] z12 | 
[V:3] A6B2c2d2 | 
[V:4] z12 | 
[V:1] G8A4 | 
[V:2] z12 | 
[V:3] e8f4- | 
[V:4] z12 | 
[V:1] A6B2c2d2 | 
[V:2] z12 | 
[V:3] f12 | 
[V:4] z12 | 
[V:1] e8f4- | 
[V:2] z12 | 
[V:3] e8d4 | 
[V:4] C,8D,4 | 
[V:1] f12 | 
[V:2] z12 | 
[V:3] f6e2d4 | 
[V:4] D,6E,2F,2G,2 | 
[V:1] e8d4 | 
[V:2] c8d4 | 
[V:3] c4A4f4- | 
[V:4] A,8_B,4- | 
[V:1] f6e2d4 | 
[V:2] d6e2f2g2 | 
[V:3] f4d8 | 
[V:4] B,12 | 
[V:1] c4d8 | 
[V:2] a8_b4- | 
[V:3] e4f4d4 | 
[V:4] A,4F,4G,4- | 
[V:1] G4d8 | 
[V:2] b12 | 
[V:3] g6f2g4 | 
[V:4] G,2A,2_B,4G,4 | 
[V:1] c4d4e4 | 
[V:2] a12 | 
[V:3] e4f4e4 | 
[V:4] A,4D,4A,4 | 
[V:1] A4B4c4 | 
[V:2] z12 | 
[V:3] f4d4f4- | 
[V:4] F,4G,4A,4 | 
[V:1] d4G4A4 | 
[V:2] z12 | 
[V:3] f4e6d2 | 
[V:4] D,4E,4F,4 | 
[V:1] B4c6B2 | 
[V:2] G8A4 | 
[V:3] d4e4c4 | 
[V:4] G,4C,4F,4- | 
[V:1] A2G2A8 | 
[V:2] A6B2c2d2 | 
[V:3] d4z4A4 | 
[V:4] F,12 | 
[V:1] G4A8 | 
[V:2] e8f4- | 
[V:3] B4c4A4 | 
[V:4] E,4C,4D,4- | 
[V:1] D4A6B2 | 
[V:2] f12 | 
[V:3] d8c4 | 
[V:4] D,2E,2F,6G,2 | 
[V:1] c6B2G4 | 
[V:2] e12 | 
[V:3] z12 | 
[V:4] A,4C6B,2 | 
[V:1] d6c2B2A2 | 
[V:2] z12 | 
[V:3] z12 | 
[V:4] G,4D6C2 | 
[V:1] A8G4 | 
[V:2] z12 | 
[V:3] z4z4d4 | 
[V:4] A,4_B,8 | 
[V:1] A4c4B4 | 
[V:2] c8d4 | 
[V:3] e4f4g4 | 
[V:4] A,8G,4 | 
[V:1] A4d8 | 
[V:2] d6e2f2g2 | 
[V:3] a8d4 | 
[V:4] F,4_B,8 | 
[V:1] c4z4z4 | 
[V:2] a4_b6a2 | 
[V:3] e4g6f2 | 
[V:4] A,4G,4C4- | 
[V:1] z12 | 
[V:2] a8g4 | 
[V:3] e8d4 | 
[V:4] C4_B,8 | 
[V:1] c6B2A4 | 
[V:2] a12 | 
[V:3] e4c4d4 | 
[V:4] A,8D,4 | 
[V:1] G4A6G2 | 
[V:2] z12 | 
[V:3] B4c6B2 | 
[V:4] E,4C,4D,4 | 
[V:1] G8F4 | 
[V:2] z12 | 
[V:3] B4A8 | 
[V:4] E,4C,4D,4 | 
[V:1] G6E2E4 | 
[V:2] G8A4 | 
[V:3] z4G4c4- | 
[V:4] E,8A,,4- | 
[V:1] c6B2A4 | 
[V:2] A6B2c2d2 | 
[V:3] c4A8 | 
[V:4] A,,4F,8 | 
[V:1] G4F4_B4- | 
[V:2] e4f6e2 | 
[V:3] B4d8 | 
[V:4] E,4D,4G,4- | 
[V:1] B4A8 | 
[V:2] e8d4 | 
[V:3] G4A6B2 | 
[V:4] G,4F,6E,2 | 
[V:1] G4E2F2G2A2 | 
[V:2] e12- | 
[V:3] c4G4c4 | 
[V:4] C,6D,2E,2F,2 | 
[V:1] B4c6B2 | 
[V:2] e12- | 
[V:3] B4e6d2 | 
[V:4] G,4A,4C,4- | 
[V:1] A4G6A2 | 
[V:2] e12- | 
[V:3] c4B4g4- | 
[V:4] C,2D,2E,6F,2 | 
[V:1] B4c6B2 | 
[V:2] e12- | 
[V:3] g2f2e6d2 | 
[V:4] G,4A,4C,4- | 
[V:1] A8^G4 | 
[V:2] e12- | 
[V:3] c4B8 | 
[V:4] C,2D,2E,8 | 
[V:1] A12 ||  
[V:2] e12 ||  
[V:3] A12 ||  
[V:4] A,,12 ||  
[V:1]  [K:C] [K:clef=treble][M:2/1]z8 | 
[V:2]  [K:C] [K:clef=treble-8][M:2/1]z8 | 
[V:3]  [K:C] [K:clef=treble-8][M:2/1]B8 | 
[V:4]  [K:C] [K:clef=bass][M:2/1]E,8- | 
[V:1] z8 | 
[V:2] z8 | 
[V:3] c4B4 | 
[V:4] E,8 | 
[V:1] z8 | 
[V:2] z8 | 
[V:3] c6BA | 
[V:4] A,,8 | 
[V:1] z8 | 
[V:2] z8 | 
[V:3] c4B4- | 
[V:4] E,8- | 
[V:1] z8 | 
[V:2] z8 | 
[V:3] B4c4- | 
[V:4] E,8 | 
[V:1] z8 | 
[V:2] z8 | 
[V:3] c2BAc4 | 
[V:4] F,4E,4 | 
[V:1] z8 | 
[V:2] z8 | 
[V:3] d2c4BA | 
[V:4] F,8 | 
[V:1] z8 | 
[V:2] z8 | 
[V:3] G6A2 | 
[V:4] E,6F,2 | 
[V:1] z8 | 
[V:2] z8 | 
[V:3] B4c4- | 
[V:4] G,4A,4 | 
[V:1] z8 | 
[V:2] z8 | 
[V:3] c2BAc2B2 | 
[V:4] A,,4E,4- | 
[V:1] z8 | 
[V:2] z8 | 
[V:3] e6d2 | 
[V:4] E,2C,2G,4 | 
[V:1] z8 | 
[V:2] z8 | 
[V:3] c4B4 | 
[V:4] A,4G,4 | 
[V:1] z8 | 
[V:2] z8 | 
[V:3] e6d2 | 
[V:4] A,4E,4 | 
[V:1] z8 | 
[V:2] z8 | 
[V:3] c2B2A2G2 | 
[V:4] z2E,2F,2E,2 | 
[V:1] z8 | 
[V:2] z8 | 
[V:3] d4c3B | 
[V:4] F,2D,2F,2E,2- | 
[V:1] z8 | 
[V:2] z8 | 
[V:3] B2A4^G2 | 
[V:4] E,2C,2B,,4 | 
[V:1] z8 ||  
[V:2] z8 ||  
[V:3] A8 ||  
[V:4] A,,8 ||  
[V:1]  [K:C] [K:clef=treble][M:2/1]E6FG | 
[V:2]  [K:C] [K:clef=treble-8][M:2/1]z8 | 
[V:3]  [K:C] [K:clef=treble-8][M:2/1]z8 | 
[V:4]  [K:C] [K:clef=bass][M:2/1]z8 | 
[V:1] A2G4FG | 
[V:2] z8 | 
[V:3] z8 | 
[V:4] z8 | 
[V:1] A8 | 
[V:2] A6Bc | 
[V:3] z8 | 
[V:4] z8 | 
[V:1] z4A4- | 
[V:2] d2c4Bc | 
[V:3] z8 | 
[V:4] z8 | 
[V:1] A2Bcd2c2- | 
[V:2] d4f4 | 
[V:3] z8 | 
[V:4] z8 | 
[V:1] c2Bcd2f2- | 
[V:2] e4d4- | 
[V:3] z8 | 
[V:4] z8 | 
[V:1] f2ede2d2- | 
[V:2] d2cBc2d2 | 
[V:3] z8 | 
[V:4] z8 | 
[V:1] d2c4BA | 
[V:2] e4A4 | 
[V:3] z8 | 
[V:4] z8 | 
[V:1] B2A4G2 | 
[V:2] z4e4 | 
[V:3] z8 | 
[V:4] z8 | 
[V:1] A2G4FE | 
[V:2] f2e4dc | 
[V:3] z8 | 
[V:4] z8 | 
[V:1] F2E4D2 | 
[V:2] d2e2f4 | 
[V:3] z8 | 
[V:4] z8 | 
[V:1] E2G4FE | 
[V:2] e3dcBA2- | 
[V:3] z8 | 
[V:4] z8 | 
[V:1] F2E4D2 | 
[V:2] A2G2F4 | 
[V:3] z8 | 
[V:4] z8 | 
[V:1] E8 ||  
[V:2] E8 ||  
[V:3] z8 ||  
[V:4] z8 ||  
[V:1]  [K:C] [K:clef=treble][M:2/1]z8 | 
[V:2]  [K:C] [K:clef=treble-8][M:2/1]z8 | 
[V:3]  [K:C] [K:clef=treble-8][M:2/1]z8 | 
[V:4]  [K:C] [K:clef=bass][M:2/1]D,8 | 
[V:1] z8 | 
[V:2] z8 | 
[V:3] z8 | 
[V:4] E,4G,4 | 
[V:1] z8 | 
[V:2] z8 | 
[V:3] A8 | 
[V:4] F,2D,2F,4 | 
[V:1] z8 | 
[V:2] z8 | 
[V:3] B4d4 | 
[V:4] E,4D,4 | 
[V:1] z8 | 
[V:2] z8 | 
[V:3] c2A2c4 | 
[V:4] A,8 | 
[V:1] z8 | 
[V:2] z8 | 
[V:3] B4A4 | 
[V:4] G,2E,2F,3E, | 
[V:1] z8 | 
[V:2] z8 | 
[V:3] e8 | 
[V:4] C,4G,4- | 
[V:1] z8 | 
[V:2] z8 | 
[V:3] d2B2c3B | 
[V:4] G,4A,4 | 
[V:1] z8 | 
[V:2] z8 | 
[V:3] G8 | 
[V:4] B,4E,4- | 
[V:1] z8 | 
[V:2] z8 | 
[V:3] c4d4 | 
[V:4] E,4B,4 | 
[V:1] z8 | 
[V:2] z8 | 
[V:3] e4f4- | 
[V:4] C4D4 | 
[V:1] z8 | 
[V:2] z8 | 
[V:3] f2edf2e2 | 
[V:4] D,4A,4- | 
[V:1] z8 | 
[V:2] z8 | 
[V:3] c4d4 | 
[V:4] A,4B,4 | 
[V:1] z8 | 
[V:2] z8 | 
[V:3] e4A4 | 
[V:4] C8 | 
[V:1] z8 | 
[V:2] z8 | 
[V:3] z2e2d2e2- | 
[V:4] C,4G,4 | 
[V:1] z8 | 
[V:2] z8 | 
[V:3] e2g2f2e2- | 
[V:4] E,4A,4 | 
[V:1] z8 | 
[V:2] z8 | 
[V:3] edcB/A/B2A2 | 
[V:4] z2A,2G,2A,2- | 
[V:1] z8 | 
[V:2] z8 | 
[V:3] c4d2f2 | 
[V:4] A,2C2B,2A,2- | 
[V:1] z8 | 
[V:2] z8 | 
[V:3] e2A2c4 | 
[V:4] A,G,F,E,/D,/E,2A,,2 | 
[V:1] z8 | 
[V:2] z8 | 
[V:3] d2f2e3d | 
[V:4] z2A,2G,2A,2- | 
[V:1] z8 | 
[V:2] z8 | 
[V:3] f2e2d2f2- | 
[V:4] A,2C2B,2A,2- | 
[V:1] z8 | 
[V:2] z8 | 
[V:3] fed4^c2 | 
[V:4] A,G,F,E,/D,/E,4 | 
[V:1] z8 ||  
[V:2] z8 ||  
[V:3] d8 ||  
[V:4] D,8 ||  



